X:1118
T:Swaggering Jig, The
M:9/8
L:1/8
O:Irish
R:slip jig
Z:Jaya R. Carl, March 27,2004
K:Gmaj
c|:"G" B2G "C"AGE "G"DEG|"G"BGG GFG "D"Az1c|
"G"B2G "C"GGE "G"DEG|"C"cBA "G"BGE "D"D2c:|
|"G"Bdd dge dBG|"G"Bdd dBG "D"Az1|
[1 c|"G"Bdd dge dBG|"C"cBA "G"BGE "D"Dz1c:|
[2 f|"C"gfe "G"dBd "C"cBA|"C"cBA "G"BGE "D"D3||
